assets/dist/images/features/reporting.svg

<svg xmlns="http://www.w3.org/2000/svg" xmlns:xlink="http://www.w3.org/1999/xlink" width="465" height="350" viewBox="0 0 465 350"><defs><filter id="a" width="106.2%" height="109.9%" x="-3.1%" y="-4.1%" filterUnits="objectBoundingBox"><feMorphology in="SourceAlpha" operator="dilate" radius="1" result="shadowSpreadOuter1"/><feOffset dy="2" in="shadowSpreadOuter1" result="shadowOffsetOuter1"/><feGaussianBlur in="shadowOffsetOuter1" result="shadowBlurOuter1" stdDeviation="3"/><feComposite in="shadowBlurOuter1" in2="SourceAlpha" operator="out" result="shadowBlurOuter1"/><feColorMatrix in="shadowBlurOuter1" values="0 0 0 0 0.207843137 0 0 0 0 0.258823529 0 0 0 0 0.329411765 0 0 0 0.101137908 0"/></filter><filter id="c" width="106%" height="132.4%" x="-3%" y="-13.2%" filterUnits="objectBoundingBox"><feMorphology in="SourceAlpha" operator="dilate" radius="1" result="shadowSpreadOuter1"/><feOffset dy="2" in="shadowSpreadOuter1" result="shadowOffsetOuter1"/><feGaussianBlur in="shadowOffsetOuter1" result="shadowBlurOuter1" stdDeviation="3"/><feComposite in="shadowBlurOuter1" in2="SourceAlpha" operator="out" result="shadowBlurOuter1"/><feColorMatrix in="shadowBlurOuter1" values="0 0 0 0 0.207843137 0 0 0 0 0.258823529 0 0 0 0 0.329411765 0 0 0 0.101137908 0"/></filter><rect id="b" width="356" height="222" x="0" y="0" rx="8"/><rect id="d" width="369" height="68" x="0" y="0" rx="8"/></defs><g fill="none" fill-rule="evenodd"><g stroke="#E1E1E1" stroke-dasharray="1 8" stroke-linecap="round" stroke-linejoin="round" stroke-width="2"><path d="M283 334c88.366 0 160-71.634 160-160S371.366 14 283 14 123 85.634 123 174s71.634 160 160 160z"/><path d="M283 308c74.006 0 134-59.994 134-134S357.006 40 283 40 149 99.994 149 174s59.994 134 134 134z"/><path d="M283 282c59.647 0 108-48.353 108-108S342.647 66 283 66s-108 48.353-108 108 48.353 108 108 108z"/><path d="M283 256c45.287 0 82-36.713 82-82s-36.713-82-82-82-82 36.713-82 82 36.713 82 82 82z"/></g><g transform="translate(53 114)"><use fill="#000" filter="url(#a)" xlink:href="#b"/><rect width="357" height="223" x="-.5" y="-.5" fill="#FFF" stroke="#E1E1E1" rx="8"/><path fill="#F1F1F1" d="M16 195h324v1H16z"/><g fill="#F1F1F1" transform="translate(30 204)"><rect width="16" height="2" rx="1"/><rect width="16" height="2" x="56" rx="1"/><rect width="16" height="2" x="112" rx="1"/><rect width="16" height="2" x="168" rx="1"/><rect width="16" height="2" x="224" rx="1"/><rect width="16" height="2" x="280" rx="1"/></g><rect width="60" height="44" x="12" y="12" fill="#F9F9F9" rx="4"/><rect width="32" height="4" x="22" y="22" fill="#384254" rx="2"/><rect width="60" height="44" x="80" y="12" fill="#F9F9F9" rx="4"/><rect width="32" height="4" x="90" y="22" fill="#01B2D0" rx="2"/><rect width="60" height="44" x="148" y="12" fill="#F9F9F9" rx="4"/><rect width="32" height="4" x="158" y="22" fill="#6F0DFB" rx="2"/><rect width="60" height="44" x="216" y="12" fill="#F9F9F9" rx="4"/><rect width="32" height="4" x="226" y="22" fill="#01B2D0" rx="2"/><rect width="60" height="44" x="284" y="12" fill="#F9F9F9" rx="4"/><rect width="32" height="4" x="294" y="22" fill="#FFC111" rx="2"/><g stroke-linecap="round" stroke-linejoin="round" stroke-width="2"><path stroke="#01B2D0" d="M28 186.612l60-10.962 60 10.962 60-10.962h60l60-23.077"/><path stroke="#FFC111" d="M28 186.612l60-34.039 60 10.962 60-10.962 60-11.538 60 23.077"/><path stroke="#6F0DFB" d="M28 186.612l60-57.115 60 34.038 60-10.962 60 11.539 60-46.154"/><path stroke="#1B2E5B" d="M28 186.612l60-46.626 60-7.92 60-10.961 60 1.049L328 76"/><path stroke="#6FD350" d="M28 186.612l60-6.346 60-16.731 60-15.041 60 15.618 60-69.231"/></g></g><g transform="translate(16 30)"><use fill="#000" filter="url(#c)" xlink:href="#d"/><rect width="370" height="69" x="-.5" y="-.5" fill="#FFF" stroke="#E1E1E1" rx="8"/><path fill="#384254" fill-rule="nonzero" d="M51.092 29.216c2.124 0 3.564-1.008 4.572-2.394l-1.26-.684a4.084 4.084 0 01-3.312 1.746c-2.628 0-4.626-2.034-4.626-4.878 0-2.88 1.998-4.878 4.626-4.878 1.368 0 2.628.72 3.312 1.746l1.242-.702c-.954-1.368-2.43-2.376-4.554-2.376-3.456 0-6.174 2.52-6.174 6.21s2.718 6.21 6.174 6.21zm9.198 0c1.296 0 2.43-.684 3.096-1.44V29h1.35v-8.694h-1.35v6.39c-.504.702-1.512 1.314-2.556 1.314-1.188 0-1.962-.45-1.962-1.98v-5.724h-1.35v6.138c0 1.872.954 2.772 2.772 2.772zm9.918 0c2.232 0 3.402-1.17 3.402-2.628 0-3.384-5.382-2.142-5.382-4.032 0-.774.738-1.368 1.926-1.368 1.134 0 2.07.468 2.592 1.098l.63-.936c-.684-.702-1.728-1.26-3.222-1.26-2.07 0-3.222 1.134-3.222 2.502 0 3.222 5.382 1.926 5.382 4.032 0 .864-.738 1.494-2.07 1.494-1.188 0-2.286-.576-2.862-1.242l-.684.972c.882.918 2.07 1.368 3.51 1.368zm7.812 0c.774 0 1.26-.234 1.602-.558l-.396-1.026c-.18.198-.522.378-.918.378-.576 0-.864-.468-.864-1.116v-5.4h1.764v-1.188h-1.764V17.93h-1.368v2.376h-1.44v1.188h1.44v5.688c0 1.296.648 2.034 1.944 2.034zm6.876 0c2.646 0 4.302-2.052 4.302-4.572s-1.656-4.554-4.302-4.554-4.302 2.034-4.302 4.554c0 2.52 1.656 4.572 4.302 4.572zm0-1.206c-1.854 0-2.88-1.584-2.88-3.366 0-1.764 1.026-3.348 2.88-3.348 1.854 0 2.88 1.584 2.88 3.348 0 1.782-1.026 3.366-2.88 3.366zm7.848.99v-6.354c.468-.702 1.404-1.35 2.286-1.35 1.152 0 1.602.702 1.602 1.8V29h1.35v-6.372c.45-.702 1.404-1.332 2.304-1.332 1.134 0 1.602.702 1.602 1.8V29h1.35v-6.282c0-1.746-.846-2.628-2.43-2.628-1.26 0-2.43.828-2.916 1.62-.252-.9-1.008-1.62-2.322-1.62-1.296 0-2.448.918-2.826 1.476v-1.26h-1.35V29h1.35zm17.136.216c1.404 0 2.574-.486 3.456-1.35l-.648-.882c-.702.72-1.692 1.116-2.7 1.116-1.872 0-3.006-1.368-3.114-3.006h7.02v-.342c0-2.61-1.548-4.662-4.176-4.662-2.484 0-4.284 2.034-4.284 4.554 0 2.718 1.854 4.572 4.446 4.572zm2.682-5.13h-5.706c.072-1.314.99-2.88 2.844-2.88 1.98 0 2.844 1.602 2.862 2.88zm4.86 4.914v-6.156c.396-.702 1.53-1.386 2.376-1.386.198 0 .36.018.522.036v-1.386c-1.188 0-2.196.684-2.898 1.584v-1.386h-1.35V29h1.35zm14.778.216c3.546 0 5.976-2.664 5.976-6.21s-2.43-6.21-5.976-6.21-5.958 2.664-5.958 6.21 2.412 6.21 5.958 6.21zm0-1.332c-2.7 0-4.41-2.088-4.41-4.878 0-2.808 1.71-4.878 4.41-4.878 2.682 0 4.428 2.07 4.428 4.878 0 2.79-1.746 4.878-4.428 4.878zM141.794 29v-6.354c.522-.702 1.512-1.35 2.574-1.35 1.17 0 1.962.468 1.962 2.016V29h1.332v-6.102c0-1.89-.954-2.808-2.754-2.808-1.314 0-2.502.738-3.114 1.476v-1.26h-1.35V29h1.35zm12.87.216c2.268 0 3.87-1.728 3.87-4.554 0-2.79-1.584-4.572-3.87-4.572-1.17 0-2.232.576-2.934 1.53v-4.626h-1.35V29h1.35v-1.296c.648.882 1.71 1.512 2.934 1.512zm-.324-1.206c-1.08 0-2.142-.612-2.61-1.368V22.7c.468-.756 1.53-1.404 2.61-1.404 1.746 0 2.79 1.44 2.79 3.366 0 1.926-1.044 3.348-2.79 3.348zm10.188 1.206c2.646 0 4.302-2.052 4.302-4.572s-1.656-4.554-4.302-4.554-4.302 2.034-4.302 4.554c0 2.52 1.656 4.572 4.302 4.572zm0-1.206c-1.854 0-2.88-1.584-2.88-3.366 0-1.764 1.026-3.348 2.88-3.348 1.854 0 2.88 1.584 2.88 3.348 0 1.782-1.026 3.366-2.88 3.366zm9.054 1.206c1.17 0 2.178-.414 2.88-1.206V29h1.35v-5.976c0-2.106-1.512-2.934-3.366-2.934-1.422 0-2.538.468-3.474 1.44l.63.936c.774-.846 1.62-1.206 2.664-1.206 1.26 0 2.196.666 2.196 1.818v1.566c-.702-.792-1.692-1.17-2.88-1.17-1.476 0-3.024.9-3.024 2.862 0 1.89 1.566 2.88 3.024 2.88zm.504-.972c-1.278 0-2.16-.792-2.16-1.908 0-1.098.882-1.89 2.16-1.89.936 0 1.854.36 2.376 1.062v1.656c-.522.72-1.44 1.08-2.376 1.08zm7.794.756v-6.156c.396-.702 1.53-1.386 2.376-1.386.198 0 .36.018.522.036v-1.386c-1.188 0-2.196.684-2.898 1.584v-1.386h-1.35V29h1.35zm7.956.216c1.224 0 2.286-.63 2.934-1.512V29h1.35V16.994h-1.35v4.626c-.702-.954-1.764-1.53-2.934-1.53-2.268 0-3.87 1.782-3.87 4.572 0 2.826 1.602 4.554 3.87 4.554zm.342-1.206c-1.764 0-2.808-1.422-2.808-3.348s1.044-3.366 2.808-3.366c1.062 0 2.124.648 2.592 1.404v3.924c-.468.756-1.53 1.386-2.592 1.386zm7.326-8.946c.504 0 .9-.396.9-.9a.907.907 0 00-.9-.918.922.922 0 00-.918.918c0 .504.414.9.918.9zM198.17 29v-8.694h-1.35V29h1.35zm4.05 0v-6.354c.522-.702 1.512-1.35 2.574-1.35 1.17 0 1.962.468 1.962 2.016V29h1.332v-6.102c0-1.89-.954-2.808-2.754-2.808-1.314 0-2.502.738-3.114 1.476v-1.26h-1.35V29h1.35zm12.078 3.528c2.124 0 4.158-.9 4.158-3.654v-8.568h-1.35v1.314c-.702-.954-1.764-1.53-2.934-1.53-2.286 0-3.87 1.728-3.87 4.518 0 2.808 1.602 4.5 3.87 4.5 1.224 0 2.286-.666 2.934-1.548v1.314c0 1.836-1.368 2.538-2.808 2.538-1.242 0-2.106-.324-2.826-1.17l-.684.972c1.044 1.026 2.052 1.314 3.51 1.314zm.216-4.626c-1.764 0-2.808-1.386-2.808-3.294 0-1.926 1.044-3.312 2.808-3.312 1.062 0 2.106.648 2.592 1.386v3.816c-.486.756-1.53 1.404-2.592 1.404z"/><rect width="60" height="2" x="44" y="46" fill="#F1F1F1" rx="1"/><rect width="32" height="4" x="325" y="22" fill="#F1F1F1" rx="2"/><rect width="80" height="2" x="44" y="54" fill="#F1F1F1" rx="1"/><rect width="3" height="6" x="15" y="27" fill="#01B2D0" rx="1.5"/><rect width="3" height="10" x="20" y="23" fill="#01B2D0" rx="1.5"/><rect width="3" height="14" x="25" y="19" fill="#01B2D0" rx="1.5"/><rect width="3" height="18" x="30" y="15" fill="#01B2D0" rx="1.5"/></g></g></svg>

<svg xmlns="http://www.w3.org/2000/svg" xmlns:xlink="http://www.w3.org/1999/xlink" width="465" height="350" viewBox="0 0 465 350">
  <defs>
    <rect id="reporting-b" width="356" height="222" x="0" y="0" rx="8"/>
    <filter id="reporting-a" width="106.2%" height="109.9%" x="-3.1%" y="-4.1%" filterUnits="objectBoundingBox">
      <feMorphology in="SourceAlpha" operator="dilate" radius="1" result="shadowSpreadOuter1"/>
      <feOffset dy="2" in="shadowSpreadOuter1" result="shadowOffsetOuter1"/>
      <feGaussianBlur in="shadowOffsetOuter1" result="shadowBlurOuter1" stdDeviation="3"/>
      <feComposite in="shadowBlurOuter1" in2="SourceAlpha" operator="out" result="shadowBlurOuter1"/>
      <feColorMatrix in="shadowBlurOuter1" values="0 0 0 0 0.207843137   0 0 0 0 0.258823529   0 0 0 0 0.329411765  0 0 0 0.101137908 0"/>
    </filter>
    <rect id="reporting-d" width="369" height="68" x="0" y="0" rx="8"/>
    <filter id="reporting-c" width="106%" height="132.4%" x="-3%" y="-13.2%" filterUnits="objectBoundingBox">
      <feMorphology in="SourceAlpha" operator="dilate" radius="1" result="shadowSpreadOuter1"/>
      <feOffset dy="2" in="shadowSpreadOuter1" result="shadowOffsetOuter1"/>
      <feGaussianBlur in="shadowOffsetOuter1" result="shadowBlurOuter1" stdDeviation="3"/>
      <feComposite in="shadowBlurOuter1" in2="SourceAlpha" operator="out" result="shadowBlurOuter1"/>
      <feColorMatrix in="shadowBlurOuter1" values="0 0 0 0 0.207843137   0 0 0 0 0.258823529   0 0 0 0 0.329411765  0 0 0 0.101137908 0"/>
    </filter>
  </defs>
  <g fill="none" fill-rule="evenodd">
    <g stroke="#E1E1E1" stroke-dasharray="1 8" stroke-linecap="round" stroke-linejoin="round" stroke-width="2" transform="translate(123 14)">
      <path d="M160,320 C248.36556,320 320,248.36556 320,160 C320,71.63444 248.36556,0 160,0 C71.63444,0 0,71.63444 0,160 C0,248.36556 71.63444,320 160,320 Z"/>
      <path d="M160,294 C234.006156,294 294,234.006156 294,160 C294,85.9938435 234.006156,26 160,26 C85.9938435,26 26,85.9938435 26,160 C26,234.006156 85.9938435,294 160,294 Z"/>
      <path d="M160,268 C219.646753,268 268,219.646753 268,160 C268,100.353247 219.646753,52 160,52 C100.353247,52 52,100.353247 52,160 C52,219.646753 100.353247,268 160,268 Z"/>
      <path d="M160,242 C205.287349,242 242,205.287349 242,160 C242,114.712651 205.287349,78 160,78 C114.712651,78 78,114.712651 78,160 C78,205.287349 114.712651,242 160,242 Z"/>
    </g>
    <g transform="translate(53 114)">
      <use fill="#000" filter="url(#reporting-a)" xlink:href="#reporting-b"/>
      <rect width="357" height="223" x="-.5" y="-.5" fill="#FFF" stroke="#E1E1E1" rx="8"/>
      <rect width="324" height="1" x="16" y="195" fill="#F1F1F1"/>
      <g fill="#F1F1F1" transform="translate(30 204)">
        <rect width="16" height="2" rx="1"/>
        <rect width="16" height="2" x="56" rx="1"/>
        <rect width="16" height="2" x="112" rx="1"/>
        <rect width="16" height="2" x="168" rx="1"/>
        <rect width="16" height="2" x="224" rx="1"/>
        <rect width="16" height="2" x="280" rx="1"/>
      </g>
      <rect width="60" height="44" x="12" y="12" fill="#F9F9F9" rx="4"/>
      <rect width="32" height="4" x="22" y="22" fill="#384254" rx="2"/>
      <rect width="60" height="44" x="80" y="12" fill="#F9F9F9" rx="4"/>
      <rect width="32" height="4" x="90" y="22" fill="#01B2D0" rx="2"/>
      <rect width="60" height="44" x="148" y="12" fill="#F9F9F9" rx="4"/>
      <rect width="32" height="4" x="158" y="22" fill="#6F0DFB" rx="2"/>
      <rect width="60" height="44" x="216" y="12" fill="#F9F9F9" rx="4"/>
      <rect width="32" height="4" x="226" y="22" fill="#01B2D0" rx="2"/>
      <rect width="60" height="44" x="284" y="12" fill="#F9F9F9" rx="4"/>
      <rect width="32" height="4" x="294" y="22" fill="#FFC111" rx="2"/>
      <g stroke-linecap="round" stroke-linejoin="round" stroke-width="2" transform="translate(28 76)">
        <polyline stroke="#01B2D0" points="0 110.612 60 99.65 120 110.612 180 99.65 240 99.65 300 76.573"/>
        <polyline stroke="#FFC111" points="0 110.612 60 76.573 120 87.535 180 76.573 240 65.035 300 88.112"/>
        <polyline stroke="#6F0DFB" points="0 110.612 60 53.497 120 87.535 180 76.573 240 88.112 300 41.958"/>
        <polyline stroke="#1B2E5B" points="0 110.612 60 63.986 120 56.066 180 45.105 240 46.154 300 0"/>
        <polyline stroke="#6FD350" points="0 110.612 60 104.266 120 87.535 180 72.494 240 88.112 300 18.881"/>
      </g>
    </g>
    <g transform="translate(16 30)">
      <use fill="#000" filter="url(#reporting-c)" xlink:href="#reporting-d"/>
      <rect width="370" height="69" x="-.5" y="-.5" fill="#FFF" stroke="#E1E1E1" rx="8"/>
      <path fill="#384254" fill-rule="nonzero" d="M51.092,29.216 C53.216,29.216 54.656,28.208 55.664,26.822 L54.404,26.138 C53.72,27.146 52.46,27.884 51.092,27.884 C48.464,27.884 46.466,25.85 46.466,23.006 C46.466,20.126 48.464,18.128 51.092,18.128 C52.46,18.128 53.72,18.848 54.404,19.874 L55.646,19.172 C54.692,17.804 53.216,16.796 51.092,16.796 C47.636,16.796 44.918,19.316 44.918,23.006 C44.918,26.696 47.636,29.216 51.092,29.216 Z M60.29,29.216 C61.586,29.216 62.72,28.532 63.386,27.776 L63.386,29 L64.736,29 L64.736,20.306 L63.386,20.306 L63.386,26.696 C62.882,27.398 61.874,28.01 60.83,28.01 C59.642,28.01 58.868,27.56 58.868,26.03 L58.868,20.306 L57.518,20.306 L57.518,26.444 C57.518,28.316 58.472,29.216 60.29,29.216 Z M70.208,29.216 C72.44,29.216 73.61,28.046 73.61,26.588 C73.61,23.204 68.228,24.446 68.228,22.556 C68.228,21.782 68.966,21.188 70.154,21.188 C71.288,21.188 72.224,21.656 72.746,22.286 L73.376,21.35 C72.692,20.648 71.648,20.09 70.154,20.09 C68.084,20.09 66.932,21.224 66.932,22.592 C66.932,25.814 72.314,24.518 72.314,26.624 C72.314,27.488 71.576,28.118 70.244,28.118 C69.056,28.118 67.958,27.542 67.382,26.876 L66.698,27.848 C67.58,28.766 68.768,29.216 70.208,29.216 Z M78.02,29.216 C78.794,29.216 79.28,28.982 79.622,28.658 L79.226,27.632 C79.046,27.83 78.704,28.01 78.308,28.01 C77.732,28.01 77.444,27.542 77.444,26.894 L77.444,21.494 L79.208,21.494 L79.208,20.306 L77.444,20.306 L77.444,17.93 L76.076,17.93 L76.076,20.306 L74.636,20.306 L74.636,21.494 L76.076,21.494 L76.076,27.182 C76.076,28.478 76.724,29.216 78.02,29.216 Z M84.896,29.216 C87.542,29.216 89.198,27.164 89.198,24.644 C89.198,22.124 87.542,20.09 84.896,20.09 C82.25,20.09 80.594,22.124 80.594,24.644 C80.594,27.164 82.25,29.216 84.896,29.216 Z M84.896,28.01 C83.042,28.01 82.016,26.426 82.016,24.644 C82.016,22.88 83.042,21.296 84.896,21.296 C86.75,21.296 87.776,22.88 87.776,24.644 C87.776,26.426 86.75,28.01 84.896,28.01 Z M92.744,29 L92.744,22.646 C93.212,21.944 94.148,21.296 95.03,21.296 C96.182,21.296 96.632,21.998 96.632,23.096 L96.632,29 L97.982,29 L97.982,22.628 C98.432,21.926 99.386,21.296 100.286,21.296 C101.42,21.296 101.888,21.998 101.888,23.096 L101.888,29 L103.238,29 L103.238,22.718 C103.238,20.972 102.392,20.09 100.808,20.09 C99.548,20.09 98.378,20.918 97.892,21.71 C97.64,20.81 96.884,20.09 95.57,20.09 C94.274,20.09 93.122,21.008 92.744,21.566 L92.744,20.306 L91.394,20.306 L91.394,29 L92.744,29 Z M109.88,29.216 C111.284,29.216 112.454,28.73 113.336,27.866 L112.688,26.984 C111.986,27.704 110.996,28.1 109.988,28.1 C108.116,28.1 106.982,26.732 106.874,25.094 L113.894,25.094 L113.894,24.752 C113.894,22.142 112.346,20.09 109.718,20.09 C107.234,20.09 105.434,22.124 105.434,24.644 C105.434,27.362 107.288,29.216 109.88,29.216 Z M112.562,24.086 L106.856,24.086 C106.928,22.772 107.846,21.206 109.7,21.206 C111.68,21.206 112.544,22.808 112.562,24.086 Z M117.422,29 L117.422,22.844 C117.818,22.142 118.952,21.458 119.798,21.458 C119.996,21.458 120.158,21.476 120.32,21.494 L120.32,20.108 C119.132,20.108 118.124,20.792 117.422,21.692 L117.422,20.306 L116.072,20.306 L116.072,29 L117.422,29 Z M132.2,29.216 C135.746,29.216 138.176,26.552 138.176,23.006 C138.176,19.46 135.746,16.796 132.2,16.796 C128.654,16.796 126.242,19.46 126.242,23.006 C126.242,26.552 128.654,29.216 132.2,29.216 Z M132.2,27.884 C129.5,27.884 127.79,25.796 127.79,23.006 C127.79,20.198 129.5,18.128 132.2,18.128 C134.882,18.128 136.628,20.198 136.628,23.006 C136.628,25.796 134.882,27.884 132.2,27.884 Z M141.794,29 L141.794,22.646 C142.316,21.944 143.306,21.296 144.368,21.296 C145.538,21.296 146.33,21.764 146.33,23.312 L146.33,29 L147.662,29 L147.662,22.898 C147.662,21.008 146.708,20.09 144.908,20.09 C143.594,20.09 142.406,20.828 141.794,21.566 L141.794,20.306 L140.444,20.306 L140.444,29 L141.794,29 Z M154.664,29.216 C156.932,29.216 158.534,27.488 158.534,24.662 C158.534,21.872 156.95,20.09 154.664,20.09 C153.494,20.09 152.432,20.666 151.73,21.62 L151.73,16.994 L150.38,16.994 L150.38,29 L151.73,29 L151.73,27.704 C152.378,28.586 153.44,29.216 154.664,29.216 Z M154.34,28.01 C153.26,28.01 152.198,27.398 151.73,26.642 L151.73,22.7 C152.198,21.944 153.26,21.296 154.34,21.296 C156.086,21.296 157.13,22.736 157.13,24.662 C157.13,26.588 156.086,28.01 154.34,28.01 Z M164.528,29.216 C167.174,29.216 168.83,27.164 168.83,24.644 C168.83,22.124 167.174,20.09 164.528,20.09 C161.882,20.09 160.226,22.124 160.226,24.644 C160.226,27.164 161.882,29.216 164.528,29.216 Z M164.528,28.01 C162.674,28.01 161.648,26.426 161.648,24.644 C161.648,22.88 162.674,21.296 164.528,21.296 C166.382,21.296 167.408,22.88 167.408,24.644 C167.408,26.426 166.382,28.01 164.528,28.01 Z M173.582,29.216 C174.752,29.216 175.76,28.802 176.462,28.01 L176.462,29 L177.812,29 L177.812,23.024 C177.812,20.918 176.3,20.09 174.446,20.09 C173.024,20.09 171.908,20.558 170.972,21.53 L171.602,22.466 C172.376,21.62 173.222,21.26 174.266,21.26 C175.526,21.26 176.462,21.926 176.462,23.078 L176.462,24.644 C175.76,23.852 174.77,23.474 173.582,23.474 C172.106,23.474 170.558,24.374 170.558,26.336 C170.558,28.226 172.124,29.216 173.582,29.216 Z M174.086,28.244 C172.808,28.244 171.926,27.452 171.926,26.336 C171.926,25.238 172.808,24.446 174.086,24.446 C175.022,24.446 175.94,24.806 176.462,25.508 L176.462,27.164 C175.94,27.884 175.022,28.244 174.086,28.244 Z M181.88,29 L181.88,22.844 C182.276,22.142 183.41,21.458 184.256,21.458 C184.454,21.458 184.616,21.476 184.778,21.494 L184.778,20.108 C183.59,20.108 182.582,20.792 181.88,21.692 L181.88,20.306 L180.53,20.306 L180.53,29 L181.88,29 Z M189.836,29.216 C191.06,29.216 192.122,28.586 192.77,27.704 L192.77,29 L194.12,29 L194.12,16.994 L192.77,16.994 L192.77,21.62 C192.068,20.666 191.006,20.09 189.836,20.09 C187.568,20.09 185.966,21.872 185.966,24.662 C185.966,27.488 187.568,29.216 189.836,29.216 Z M190.178,28.01 C188.414,28.01 187.37,26.588 187.37,24.662 C187.37,22.736 188.414,21.296 190.178,21.296 C191.24,21.296 192.302,21.944 192.77,22.7 L192.77,26.624 C192.302,27.38 191.24,28.01 190.178,28.01 Z M197.504,19.064 C198.008,19.064 198.404,18.668 198.404,18.164 C198.404,17.66 198.008,17.246 197.504,17.246 C197,17.246 196.586,17.66 196.586,18.164 C196.586,18.668 197,19.064 197.504,19.064 Z M198.17,29 L198.17,20.306 L196.82,20.306 L196.82,29 L198.17,29 Z M202.22,29 L202.22,22.646 C202.742,21.944 203.732,21.296 204.794,21.296 C205.964,21.296 206.756,21.764 206.756,23.312 L206.756,29 L208.088,29 L208.088,22.898 C208.088,21.008 207.134,20.09 205.334,20.09 C204.02,20.09 202.832,20.828 202.22,21.566 L202.22,20.306 L200.87,20.306 L200.87,29 L202.22,29 Z M214.298,32.528 C216.422,32.528 218.456,31.628 218.456,28.874 L218.456,20.306 L217.106,20.306 L217.106,21.62 C216.404,20.666 215.342,20.09 214.172,20.09 C211.886,20.09 210.302,21.818 210.302,24.608 C210.302,27.416 211.904,29.108 214.172,29.108 C215.396,29.108 216.458,28.442 217.106,27.56 L217.106,28.874 C217.106,30.71 215.738,31.412 214.298,31.412 C213.056,31.412 212.192,31.088 211.472,30.242 L210.788,31.214 C211.832,32.24 212.84,32.528 214.298,32.528 Z M214.514,27.902 C212.75,27.902 211.706,26.516 211.706,24.608 C211.706,22.682 212.75,21.296 214.514,21.296 C215.576,21.296 216.62,21.944 217.106,22.682 L217.106,26.498 C216.62,27.254 215.576,27.902 214.514,27.902 Z"/>
      <rect width="60" height="2" x="44" y="46" fill="#F1F1F1" rx="1"/>
      <rect width="32" height="4" x="325" y="22" fill="#F1F1F1" rx="2"/>
      <rect width="80" height="2" x="44" y="54" fill="#F1F1F1" rx="1"/>
      <rect width="3" height="6" x="15" y="27" fill="#01B2D0" rx="1.5"/>
      <rect width="3" height="10" x="20" y="23" fill="#01B2D0" rx="1.5"/>
      <rect width="3" height="14" x="25" y="19" fill="#01B2D0" rx="1.5"/>
      <rect width="3" height="18" x="30" y="15" fill="#01B2D0" rx="1.5"/>
    </g>
  </g>
</svg>
